X: 1
T: Devoj\vce, devoj\vce
O: Makedonija
Z: 2009 John Chambers <jc:trillian.mit.edu>
M: 2.3.2.2/8
L: 1/8
K: Ddor
"^Instr:"\
|: de fed cB AG \
| Bc dec d2 d2 :|
"^Vocal:"\
|: de f2g fe f2 | gg g2e fe d2 :| gg g2e fe d2 |
w: 1.~De-voj\vce, de-voj-*-\vce cr-ve-no, jam-bol-\vce. Ne stoj spro-ti me-*ne
w: 2.~Iz-go-rev za te-*be ka-ko len za vo-*da. Ka-ko len za vo-*da
w: 3.~Go-ri, lu-do-, go-re i ja ta-ko go-*ram. I jaz ta-ka go-*ram
| de fed e2 e2 | gg g2e fe d2 | de feg d2 d2 |]
w: iz-go-rev* za te-be ne sto spro-ti me-*ne* iz-go-rev* za te-be.
w: bo-zi-luk* za sen-ka. Ka-ko len za vo-*da* bo-ze-luk za sen-ka.
w: ka-ko len* za vo-da, ka-ko len za vo-*da* bo-zi-luk* za sen-ka.
